src/assets/icons/map.svg

<svg width="20" height="20" viewBox="0 0 20 20" fill="none" xmlns="http://www.w3.org/2000/svg">
<path d="M1.9082 6.48335V14.5917C1.9082 16.175 3.0332 16.825 4.39987 16.0417L6.3582 14.925C6.7832 14.6834 7.49154 14.6584 7.9332 14.8834L12.3082 17.075C12.7499 17.2917 13.4582 17.275 13.8832 17.0334L17.4915 14.9667C17.9499 14.7 18.3332 14.05 18.3332 13.5167V5.40835C18.3332 3.82502 17.2082 3.17502 15.8415 3.95835L13.8832 5.07502C13.4582 5.31669 12.7499 5.34169 12.3082 5.11669L7.9332 2.93335C7.49154 2.71669 6.7832 2.73335 6.3582 2.97502L2.74987 5.04169C2.2832 5.30835 1.9082 5.95835 1.9082 6.48335Z" stroke="#262626" stroke-linecap="round" stroke-linejoin="round"/>
<path d="M7.13379 3.33334V14.1667" stroke="#262626" stroke-linecap="round" stroke-linejoin="round"/>
<path d="M13.1084 5.51666V16.6667" stroke="#262626" stroke-linecap="round" stroke-linejoin="round"/>
</svg>

<svg xmlns="http://www.w3.org/2000/svg" fill="none" viewBox="0 0 20 20">
  <path stroke="#262626" stroke-linecap="round" stroke-linejoin="round" d="M1.9083 6.4833v8.1084c0 1.5833 1.125 2.2333 2.4917 1.45l1.9583-1.1167c.425-.2416 1.1334-.2666 1.575-.0416l4.375 2.1916c.4417.2167 1.15.2 1.575-.0416l3.6084-2.0667c.4583-.2667.8416-.9167.8416-1.45V5.4084c0-1.5834-1.125-2.2334-2.4916-1.45L13.8833 5.075c-.425.2417-1.1333.2667-1.575.0417l-4.375-2.1833c-.4416-.2167-1.15-.2-1.575.0416L2.75 5.0417c-.4667.2667-.8417.9167-.8417 1.4417ZM7.1333 3.3333v10.8334M13.1083 5.5167v11.15"/>
</svg>
